packages/icons/svg/Fill/toggle-left.svg

<svg fill="none" height="24" viewBox="0 0 24 24" width="24" xmlns="http://www.w3.org/2000/svg"><path clip-rule="evenodd" d="m9.00292 11.006c-.552 0-.998.448-.997 1 0 .551.448.998 1 .997.551-.001.99798-.449.99698-1-.001-.552-.44898-.998-.99998-.997zm.00494 3.9941c-1.652.002-2.998-1.34-3-2.992-.002-1.653 1.34-2.99799 2.992-2.99999 1.65304-.002 2.99804 1.33999 3.00004 2.99199s-1.34 2.998-2.99204 3zm5.97894-9.99399-5.99297.008c-3.853.005-6.986 3.145-6.98 6.99999.005 3.853 3.145 6.986 7 6.98l5.99197-.008c3.854-.005 6.986-3.145 6.981-7-.005-3.85299-3.146-6.98599-7-6.97999z" fill="#6b7280" fill-rule="evenodd"/></svg>

<svg width="24" height="24" viewBox="0 0 24 24" fill="none" xmlns="http://www.w3.org/2000/svg">
<g id="Icon/Fill/toggle-left">
<path id="Mask" fill-rule="evenodd" clip-rule="evenodd" d="M9.00278 11.0059C8.45078 11.0059 8.00478 11.4539 8.00578 12.0059C8.00578 12.5569 8.45378 13.0039 9.00578 13.0029C9.55678 13.0019 10.0038 12.5539 10.0028 12.0029C10.0018 11.4509 9.55378 11.0049 9.00278 11.0059ZM9.00768 15C7.35568 15.002 6.00968 13.66 6.00768 12.008C6.00568 10.355 7.34768 9.00999 8.99968 9.00799C10.6527 9.00599 11.9977 10.348 11.9997 12C12.0017 13.652 10.6597 14.998 9.00768 15ZM14.9867 5.00599L8.99368 5.01399C5.14068 5.01899 2.00768 8.15899 2.01368 12.014C2.01868 15.867 5.15868 19 9.01368 18.994L15.0057 18.986C18.8597 18.981 21.9917 15.841 21.9867 11.986C21.9817 8.13299 18.8407 4.99999 14.9867 5.00599Z" fill="#000000"/>
</g>
</svg>
